_includes/icons/color-slack.svg

<svg fill="#666" height="50" viewBox="0 0 48 48" width="50" xmlns="http://www.w3.org/2000/svg"><path d="m31.199219 10.601563-6.597656 2.296875-1.402344-4.296875c-.597656-1.800782.300781-3.800782 2.199219-4.402344 1.800781-.597656 3.800781.300781 4.402343 2.199219zm-2 16 6.601562-2.300782-2.300781-7.101562-6.601562 2.300781zm3.402344 10.199218c.5 1.398438 1.898437 2.398438 3.296875 2.398438.402343 0 .800781-.097656 1.101562-.199219 1.800781-.601562 2.800781-2.601562 2.199219-4.398437l-1.199219-3.601563-6.601562 2.300781z" fill="#ffb300"/><path d="m17.199219 15.5-6.597656 2.300781-1.402344-4.199218c-.597656-1.800782.300781-3.800782 2.199219-4.402344 1.800781-.597656 3.800781.300781 4.402343 2.199219zm1.402344 26.300781c.5 1.398438 1.898437 2.398438 3.296875 2.398438.402343 0 .800781-.097656 1.101562-.199219 1.800781-.601562 2.800781-2.601562 2.199219-4.398437l-1.199219-3.703125-6.601562 2.300781zm.796875-19.601562-6.597657 2.300781 2.300782 7.101563 6.597656-2.300782z" fill="#00bfa5"/><path d="m33.398438 17.300781-2.199219-6.601562 4.101562-1.398438c1.800782-.601562 3.800782.300782 4.398438 2.199219.601562 1.800781-.300781 3.800781-2.199219 4.398438zm-6.597657 2.300782-2.199218-6.601563-7.402344 2.601563 2.199219 6.597656zm-20.402343-.300782c-1.796875.597657-2.796875 2.597657-2.199219 4.398438.5 1.5 1.902344 2.402344 3.300781 2.402344.398438 0 .800781-.101563 1.101563-.203125l4.097656-1.398438-2.199219-6.601562z" fill="#00bcd4"/><path d="m15.101563 31.5 2.199218 6.601563-4.699218 1.597656c-.402344.101562-.800782.199219-1.101563.199219-1.5 0-2.800781-.898438-3.300781-2.398438-.597656-1.800781.300781-3.800781 2.199219-4.398437zm28.597656-6.199219c-.597656-1.800781-2.597656-2.800781-4.398438-2.199218l-3.5 1.199218 2.199219 6.699219 3.601563-1.199219c1.796875-.699218 2.796875-2.699218 2.097656-4.5zm-22 3.898438 2.199219 6.601562 7.402343-2.601562-2.199218-6.597656z" fill="#e91e63"/><path d="m33.398438 17.300781-2.199219-6.699218-6.597656 2.296875 2.199218 6.703125z" fill="#388e3c"/><path d="m17.199219 15.5-6.597656 2.300781 2.199218 6.699219 6.597657-2.300781z" fill="#00897b"/><path d="m29.199219 26.601563 2.199219 6.699218 6.601562-2.300781-2.199219-6.699219z" fill="#bf360c"/><path d="m15.101563 31.5 2.199218 6.699219 6.597657-2.300781-2.199219-6.699219z" fill="#4e342e"/></svg>

<svg xmlns="http://www.w3.org/2000/svg" viewBox="0 0 48 48" width="50" height="50" fill="#666"><path d="M 31.199219 10.601563 L 24.601563 12.898438 L 23.199219 8.601563 C 22.601563 6.800781 23.5 4.800781 25.398438 4.199219 C 27.199219 3.601563 29.199219 4.5 29.800781 6.398438 Z M 29.199219 26.601563 L 35.800781 24.300781 L 33.5 17.199219 L 26.898438 19.5 Z M 32.601563 36.800781 C 33.101563 38.199219 34.5 39.199219 35.898438 39.199219 C 36.300781 39.199219 36.699219 39.101563 37 39 C 38.800781 38.398438 39.800781 36.398438 39.199219 34.601563 L 38 31 L 31.398438 33.300781 Z" fill="#ffb300"/><path d="M 17.199219 15.5 L 10.601563 17.800781 L 9.199219 13.601563 C 8.601563 11.800781 9.5 9.800781 11.398438 9.199219 C 13.199219 8.601563 15.199219 9.5 15.800781 11.398438 Z M 18.601563 41.800781 C 19.101563 43.199219 20.5 44.199219 21.898438 44.199219 C 22.300781 44.199219 22.699219 44.101563 23 44 C 24.800781 43.398438 25.800781 41.398438 25.199219 39.601563 L 24 35.898438 L 17.398438 38.199219 Z M 19.398438 22.199219 L 12.800781 24.5 L 15.101563 31.601563 L 21.699219 29.300781 Z" fill="#00bfa5"/><path d="M 33.398438 17.300781 L 31.199219 10.699219 L 35.300781 9.300781 C 37.101563 8.699219 39.101563 9.601563 39.699219 11.5 C 40.300781 13.300781 39.398438 15.300781 37.5 15.898438 Z M 26.800781 19.601563 L 24.601563 13 L 17.199219 15.601563 L 19.398438 22.199219 Z M 6.398438 19.300781 C 4.601563 19.898438 3.601563 21.898438 4.199219 23.699219 C 4.699219 25.199219 6.101563 26.101563 7.5 26.101563 C 7.898438 26.101563 8.300781 26 8.601563 25.898438 L 12.699219 24.5 L 10.5 17.898438 Z" fill="#00bcd4"/><path d="M 15.101563 31.5 L 17.300781 38.101563 L 12.601563 39.699219 C 12.199219 39.800781 11.800781 39.898438 11.5 39.898438 C 10 39.898438 8.699219 39 8.199219 37.5 C 7.601563 35.699219 8.5 33.699219 10.398438 33.101563 Z M 43.699219 25.300781 C 43.101563 23.5 41.101563 22.5 39.300781 23.101563 L 35.800781 24.300781 L 38 31 L 41.601563 29.800781 C 43.398438 29.101563 44.398438 27.101563 43.699219 25.300781 Z M 21.699219 29.199219 L 23.898438 35.800781 L 31.300781 33.199219 L 29.101563 26.601563 Z" fill="#e91e63"/><path d="M 33.398438 17.300781 L 31.199219 10.601563 L 24.601563 12.898438 L 26.800781 19.601563 Z" fill="#388e3c"/><path d="M 17.199219 15.5 L 10.601563 17.800781 L 12.800781 24.5 L 19.398438 22.199219 Z" fill="#00897b"/><path d="M 29.199219 26.601563 L 31.398438 33.300781 L 38 31 L 35.800781 24.300781 Z" fill="#bf360c"/><path d="M 15.101563 31.5 L 17.300781 38.199219 L 23.898438 35.898438 L 21.699219 29.199219 Z" fill="#4e342e"/></svg>
